Numix-Circle/48x48/applications/androidstudio.svg

<?xml version="1.0" encoding="UTF-8" standalone="no"?>
<svg
   xmlns:dc="http://purl.org/dc/elements/1.1/"
   xmlns:cc="http://creativecommons.org/ns#"
   xmlns:rdf="http://www.w3.org/1999/02/22-rdf-syntax-ns#"
   xmlns:svg="http://www.w3.org/2000/svg"
   xmlns="http://www.w3.org/2000/svg"
   xmlns:xlink="http://www.w3.org/1999/xlink"
   xmlns:sodipodi="http://sodipodi.sourceforge.net/DTD/sodipodi-0.dtd"
   xmlns:inkscape="http://www.inkscape.org/namespaces/inkscape"
   width="48"
   viewBox="0 0 13.546667 13.546667"
   height="48"
   id="svg2"
   version="1.1"
   inkscape:version="0.48.4 r9939"
   sodipodi:docname="androidstudio.svg">
  <metadata
     id="metadata28">
    <rdf:RDF>
      <cc:Work
         rdf:about="">
        <dc:format>image/svg+xml</dc:format>
        <dc:type
           rdf:resource="http://purl.org/dc/dcmitype/StillImage" />
        <dc:title />
      </cc:Work>
    </rdf:RDF>
  </metadata>
  <sodipodi:namedview
     pagecolor="#ffffff"
     bordercolor="#666666"
     borderopacity="1"
     objecttolerance="10"
     gridtolerance="10"
     guidetolerance="10"
     inkscape:pageopacity="0"
     inkscape:pageshadow="2"
     inkscape:window-width="1366"
     inkscape:window-height="712"
     id="namedview26"
     showgrid="true"
     inkscape:zoom="73.451625"
     inkscape:cx="24.578441"
     inkscape:cy="37.003049"
     inkscape:window-x="0"
     inkscape:window-y="29"
     inkscape:window-maximized="1"
     inkscape:current-layer="svg2">
    <inkscape:grid
       type="xygrid"
       id="grid2992" />
  </sodipodi:namedview>
  <defs
     id="defs4">
    <linearGradient
       id="linearGradient4460">
      <stop
         offset="0"
         style="stop-color:#698f29"
         id="stop7" />
      <stop
         offset="1"
         style="stop-color:#94c147"
         id="stop9" />
    </linearGradient>
    <linearGradient
       gradientTransform="matrix(1.10528 0 0 1.10528 -134.28255 -295.77083)"
       xlink:href="#linearGradient4460"
       id="linearGradient3774"
       y1="279.096"
       y2="268.33"
       gradientUnits="userSpaceOnUse"
       x2="0" />
  </defs>
  <g
     style="fill-rule:evenodd"
     id="g12">
    <rect
       width="12.982"
       x=".282"
       y=".282"
       rx="6.491"
       height="12.982"
       style="opacity:.5;fill:#fff"
       id="rect14" />
    <rect
       width="11.853"
       x=".847"
       y=".847"
       rx="5.926"
       height="11.853"
       style="fill:url(#linearGradient3774)"
       id="rect16" />
  </g>
  <g
     style="fill:#f9f9f9"
     id="g18">
    <path
       d="m 9.4363776,5.3622223 c -0.2438301,0 -0.4052663,0.2139379 -0.4052663,0.4777089 l 0,1.8668045 c 0,0.2638615 0.1614362,0.4777089 0.4052663,0.4777089 0.2438302,0 0.4414004,-0.2138293 0.4414004,-0.4777089 l 0,-1.8668045 C 9.8777953,5.5761602 9.6802251,5.3622223 9.4363776,5.3622223 z m -5.3259503,0 c -0.2439679,0 -0.4415383,0.2139379 -0.4415383,0.4777089 l 0,1.8668045 c 0,0.2638615 0.1975528,0.4777089 0.4415383,0.4777089 0.2439336,0 0.4051284,-0.2138293 0.4051284,-0.4777089 l 0,-1.8668045 C 4.5154189,5.5761602 4.3542748,5.3622223 4.1104273,5.3622223 z"
       id="path20"
       inkscape:connector-curvature="0"
       sodipodi:nodetypes="ssssscsssssscs" />
    <path
       d="m 17,19 0,11.59375 c 0,0.688921 0.322415,1.406503 1.000142,1.406503 l 2.000016,0 0,3.374747 c 0,0.897029 0.318119,1.625 1.187342,1.625 0.868916,0 1.812682,-0.727971 1.812682,-1.625 l 0,-3.374747 2.000015,0 0,3.374747 c 0,0.897029 0.943449,1.625 1.812303,1.625 0.868855,0 1.187721,-0.727971 1.187721,-1.625 l 0,-3.374747 2.000016,0 C 30.677166,32.000253 31,31.282178 31,30.59375 L 31,19 z m 7.1875,1 c 1.612605,0.04836 0.319663,1.501645 1.6875,2.28125 1.367844,0.779605 2.212172,-0.926953 2.96875,0.375 0.756578,1.301952 -1.286313,0.962057 -1.34375,2.4375 -0.0574,1.475444 1.98101,1.30893 1.125,2.5625 -0.85601,1.253611 -1.543504,-0.50834 -2.96875,0.1875 C 24.231001,28.539588 25.425087,30.048366 23.8125,30 22.19993,29.95164 23.492837,28.498355 22.125,27.71875 c -1.367844,-0.779604 -2.212172,0.926952 -2.96875,-0.375 -0.756578,-1.301952 1.286348,-0.962057 1.34375,-2.4375 0.05741,-1.475444 -1.981017,-1.30891 -1.125,-2.5625 0.85601,-1.253591 1.543501,0.508339 2.96875,-0.1875 1.247078,-0.608859 0.503531,-1.858061 1.375,-2.125 C 23.843265,19.993106 23.985921,19.993976 24.1875,20 z M 24,23.78125 c -0.08847,6.19e-4 -0.191337,0.01365 -0.28125,0.03125 -0.719295,0.140765 -1.184144,0.775256 -1.03125,1.4375 0.152894,0.662243 0.874445,1.078265 1.59375,0.9375 C 25.000577,26.046736 25.465394,25.412244 25.3125,24.75 25.178718,24.170537 24.619302,23.776919 24,23.78125 z"
       transform="scale(0.28222,0.28222)"
       id="path22"
       inkscape:connector-curvature="0"
       sodipodi:nodetypes="csscsssccssscsscccssccsssssssccssssss" />
    <path
       d="M 7.7098227,3.7247438 8.074799,3.2049284 C 8.096378,3.1740104 8.091075,3.1335334 8.062753,3.1143164 8.034379,3.0952334 7.993976,3.1046064 7.972188,3.1355924 L 7.5930349,3.6754289 C 7.3433735,3.5788246 7.0658064,3.5250569 6.7733156,3.5250569 c -0.2924041,0 -0.5701272,0.053768 -0.8197886,0.150372 L 5.5743723,3.1355929 c -0.021787,-0.030918 -0.062207,-0.040393 -0.090564,-0.021276 -0.028356,0.019117 -0.033729,0.05966 -0.012063,0.090612 l 0.364977,0.5198156 C 5.256698,3.9894809 4.849603,4.4926906 4.7977779,5.0800001 H 8.7488891 C 8.6970469,4.4926906 8.2899518,3.9894976 7.7098236,3.7247438 z M 5.9398858,4.5438636 c -0.1207231,0 -0.2186879,-0.096002 -0.2186879,-0.2145015 0,-0.1183156 0.097879,-0.2144178 0.2186879,-0.2144178 0.1208092,0 0.218445,0.096102 0.218445,0.2144178 0,0.1184161 -0.097757,0.2145015 -0.218445,0.2145015 z m 1.6941752,0 c -0.1208096,0 -0.2185491,-0.096002 -0.2185491,-0.2145015 0,-0.1183156 0.097757,-0.2144178 0.2185491,-0.2144178 0.1208269,0 0.2185665,0.096102 0.2185665,0.2144178 0,0.1184161 -0.097757,0.2145015 -0.2185665,0.2145015 z"
       id="path24" />
  </g>
</svg>

<?xml version="1.0" encoding="UTF-8" standalone="no"?>
<svg
   xmlns:dc="http://purl.org/dc/elements/1.1/"
   xmlns:cc="http://creativecommons.org/ns#"
   xmlns:rdf="http://www.w3.org/1999/02/22-rdf-syntax-ns#"
   xmlns:svg="http://www.w3.org/2000/svg"
   xmlns="http://www.w3.org/2000/svg"
   xmlns:xlink="http://www.w3.org/1999/xlink"
   xmlns:sodipodi="http://sodipodi.sourceforge.net/DTD/sodipodi-0.dtd"
   xmlns:inkscape="http://www.inkscape.org/namespaces/inkscape"
   width="48"
   viewBox="0 0 13.546667 13.546667"
   height="48"
   id="svg2"
   version="1.1"
   inkscape:version="0.48.4 r9939"
   sodipodi:docname="kdenlive.svg">
  <metadata
     id="metadata28">
    <rdf:RDF>
      <cc:Work
         rdf:about="">
        <dc:format>image/svg+xml</dc:format>
        <dc:type
           rdf:resource="http://purl.org/dc/dcmitype/StillImage" />
        <dc:title></dc:title>
      </cc:Work>
    </rdf:RDF>
  </metadata>
  <sodipodi:namedview
     pagecolor="#ffffff"
     bordercolor="#666666"
     borderopacity="1"
     objecttolerance="10"
     gridtolerance="10"
     guidetolerance="10"
     inkscape:pageopacity="0"
     inkscape:pageshadow="2"
     inkscape:window-width="1366"
     inkscape:window-height="742"
     id="namedview26"
     showgrid="false"
     inkscape:zoom="22.599334"
     inkscape:cx="24.40678"
     inkscape:cy="32.849818"
     inkscape:window-x="0"
     inkscape:window-y="26"
     inkscape:window-maximized="1"
     inkscape:current-layer="svg2" />
  <defs
     id="defs4">
    <linearGradient
       id="linearGradient4460">
      <stop
         offset="0"
         style="stop-color:#698f29"
         id="stop7" />
      <stop
         offset="1"
         style="stop-color:#94c147"
         id="stop9" />
    </linearGradient>
    <linearGradient
       gradientTransform="matrix(1.10528 0 0 1.10528 -134.28255 -295.77083)"
       xlink:href="#linearGradient4460"
       id="linearGradient3774"
       y1="279.096"
       y2="268.33"
       gradientUnits="userSpaceOnUse"
       x2="0" />
  </defs>
  <g
     style="fill-rule:evenodd"
     id="g12">
    <rect
       width="12.982"
       x=".282"
       y=".282"
       rx="6.491"
       height="12.982"
       style="opacity:.5;fill:#fff"
       id="rect14" />
    <rect
       width="11.853"
       x=".847"
       y=".847"
       rx="5.926"
       height="11.853"
       style="fill:url(#linearGradient3774)"
       id="rect16" />
  </g>
  <g
     style="fill:#f9f9f9"
     id="g18">
    <path
       d="m 9.4363776,5.3622223 c -0.2438301,0 -0.4416072,0.2139379 -0.4416072,0.4777089 v 1.8668045 c 0,0.2638615 0.1977771,0.4777089 0.4416072,0.4777089 0.2438302,0 0.4414004,-0.2138293 0.4414004,-0.4777089 V 5.8399312 C 9.8777953,5.5761602 9.6802251,5.3622223 9.4363776,5.3622223 z m -5.3259503,0 c -0.2439679,0 -0.4415383,0.2139379 -0.4415383,0.4777089 v 1.8668045 c 0,0.2638615 0.1975528,0.4777089 0.4415383,0.4777089 0.2439336,0 0.4416245,-0.2138293 0.4416245,-0.4777089 V 5.8399312 C 4.551915,5.5761602 4.3542748,5.3622223 4.1104273,5.3622223 z"
       id="path20" />
    <path
       d="M 17 19 L 17 30.59375 C 17 31.282671 17.541023 31.84375 18.21875 31.84375 L 19.625 31.84375 L 19.625 35.375 C 19.625 36.272029 20.318277 37 21.1875 37 C 22.056416 37 22.78125 36.272029 22.78125 35.375 L 22.78125 31.84375 L 25.21875 31.84375 L 25.21875 35.375 C 25.21875 36.272029 25.943646 37 26.8125 37 C 27.681355 37 28.375 36.272029 28.375 35.375 L 28.375 31.84375 L 29.78125 31.84375 C 30.458179 31.84375 31 31.282178 31 30.59375 L 31 19 L 17 19 z M 24.1875 20 C 25.800105 20.048362 24.507163 21.501645 25.875 22.28125 C 27.242844 23.060855 28.087172 21.354297 28.84375 22.65625 C 29.600328 23.958202 27.557437 23.618307 27.5 25.09375 C 27.442595 26.569194 29.48101 26.40268 28.625 27.65625 C 27.76899 28.909861 27.081496 27.14791 25.65625 27.84375 C 24.231001 28.539588 25.425087 30.048366 23.8125 30 C 22.19993 29.951637 23.492837 28.498355 22.125 27.71875 C 20.757156 26.939146 19.912828 28.645702 19.15625 27.34375 C 18.399672 26.041798 20.442598 26.381693 20.5 24.90625 C 20.557409 23.430806 18.518983 23.59734 19.375 22.34375 C 20.23101 21.090159 20.918501 22.852089 22.34375 22.15625 C 23.590828 21.547391 22.847281 20.298189 23.71875 20.03125 C 23.843265 19.993106 23.985921 19.993976 24.1875 20 z M 24 23.78125 C 23.911528 23.781869 23.808663 23.794904 23.71875 23.8125 C 22.999455 23.953265 22.534606 24.587756 22.6875 25.25 C 22.840394 25.912243 23.561945 26.328265 24.28125 26.1875 C 25.000577 26.046736 25.465394 25.412244 25.3125 24.75 C 25.178718 24.170537 24.619302 23.776919 24 23.78125 z "
       transform="scale(.28222)"
       id="path22" />
    <path
       d="M 7.7098227,3.7247438 8.074799,3.2049284 C 8.096378,3.1740104 8.091075,3.1335334 8.062753,3.1143164 8.034379,3.0952334 7.993976,3.1046064 7.972188,3.1355924 L 7.5930349,3.6754289 C 7.3433735,3.5788246 7.0658064,3.5250569 6.7733156,3.5250569 c -0.2924041,0 -0.5701272,0.053768 -0.8197886,0.150372 L 5.5743723,3.1355929 c -0.021787,-0.030918 -0.062207,-0.040393 -0.090564,-0.021276 -0.028356,0.019117 -0.033729,0.05966 -0.012063,0.090612 l 0.364977,0.5198156 C 5.256698,3.9894809 4.849603,4.4926906 4.7977779,5.0800001 H 8.7488891 C 8.6970469,4.4926906 8.2899518,3.9894976 7.7098236,3.7247438 z M 5.9398858,4.5438636 c -0.1207231,0 -0.2186879,-0.096002 -0.2186879,-0.2145015 0,-0.1183156 0.097879,-0.2144178 0.2186879,-0.2144178 0.1208092,0 0.218445,0.096102 0.218445,0.2144178 0,0.1184161 -0.097757,0.2145015 -0.218445,0.2145015 z m 1.6941752,0 c -0.1208096,0 -0.2185491,-0.096002 -0.2185491,-0.2145015 0,-0.1183156 0.097757,-0.2144178 0.2185491,-0.2144178 0.1208269,0 0.2185665,0.096102 0.2185665,0.2144178 0,0.1184161 -0.097757,0.2145015 -0.2185665,0.2145015 z"
       id="path24" />
  </g>
</svg>
